X:95
T:Sant-Simoun
O:France
A:Provence
R:Marche
S:
Z:Transcrit et/ou corrig par Michel BELLON - 2005-02-27
Z:Pour toute observation mailto:galouvielle@free.fr
M:2/4
L:1/8
K:Bb
V:Galoubet
d>dd2 | d>dd2 | eccg | (f2d2) | feec | eddB | dBBA | B2 G/A/B/c/ |
 d>dd2 | d>dd2 | fccg | (f2d2) | feec | eddB | dccA | BzBz !fine! || [K:F]
f4 | f>ef>d | c4 | c>AB>G | F2>>G2 | F>GA>B | d2-d/c/B/A/ | G2z2 |
g2>f2 | e>dc>B | A>c f2 | G>Bd2 | F>Ac2 | B>cA>G | FF Ac | f2z2!D.C.! |]
%%footer $D   Galouvielle-MBe 2005 \nMarche France
